icons/reshape-add-geometry-24.svg

<svg xmlns="http://www.w3.org/2000/svg" viewBox="0 0 24 24"><path d="M23 4v1h-3v3h-1V5h-3V4h3V1h1v3h3zm-6 17h1v-1h-1v1zm-2 0h1v-1h-1v1zm0-10h1v-1h-1v1zm2 1h1v-1h-1v1zm3 6h1v-1h-1v1zm1-3h-1v1h1v-1zm-2 4h3v3h-3v-3zm1 2h1v-1h-1v1zm-1-10h3v3h-3v-3zm1 2h1v-1h-1v1zm-9-6h3v3h-1v9h1v3h-3v-1H5v1H2v-3h1V5H2V2h3v1.617l6 3.6V7zM3 4h1V3H3v1zm1 16H3v1h1v-1zm8 0v1h1v-1h-1zm0-11h1V8h-1v1zm0 1h-1V8.383l-6-3.6V5H4v14h1v1h6v-1h1v-9z" stroke-width="0"/><path stroke-width="0" fill="none" d="M0 0h24v24H0z"/></svg>

<?xml version="1.0" encoding="UTF-8"?><svg id="icons" xmlns="http://www.w3.org/2000/svg" viewBox="0 0 24 24"><defs><style>.cls-1{fill:none;}.cls-1,.cls-2{stroke-width:0px;}</style></defs><path class="cls-2" d="M23,4v1h-3v3h-1v-3h-3v-1h3V1h1v3h3ZM17,21h1v-1h-1v1ZM15,21h1v-1h-1v1ZM15,11h1v-1h-1v1ZM17,12h1v-1h-1v1ZM20,18h1v-1h-1v1ZM21,15h-1v1h1v-1ZM19,19h3v3h-3v-3ZM20,21h1v-1h-1v1ZM19,11h3v3h-3v-3ZM20,13h1v-1h-1v1ZM11,7h3v3h-1v9h1v3h-3v-1h-6v1h-3v-3h1V5h-1v-3h3v1.61719l6,3.59998v-.21716ZM3,4h1v-1h-1v1ZM4,20h-1v1h1v-1ZM12,20v1h1v-1h-1ZM12,9h1v-1h-1v1ZM12,10h-1v-1.61719l-6-3.59998v.21716h-1v14h1v1h6v-1h1v-9Z"/><rect class="cls-1" width="24" height="24"/></svg>
